!!!COM: Palestrina, Giovanni Perluigi da
!!!OPR: Missa In semidupl. maj. (II)
!!!OMD: Gloria
!!!OTL: Qui tollis
**kern	**kern	**kern	**kern	**kern
*Ibass	*Itenor	*Itenor	*Icalto	*Icant
!Bassus	!Tenor 2	!Tenor 1	!Altus	!Cantus
*clefF4	*clefGv2	*clefGv2	*clefG2	*clefG2
*k[b-]	*k[b-]	*k[b-]	*k[b-]	*k[b-]
*F:ion	*F:ion	*F:ion	*F:ion	*F:ion
*M4/2	*M4/2	*M4/2	*M4/2	*M4/2
=62	=62	=62	=62	=62
0r	1.F	0r	1r	0r
.	.	.	[1c	.
.	4E	.	.	.
.	4D	.	.	.
=63	=63	=63	=63	=63
0r	2E	0r	2c]	0r
.	2F	.	4B-	.
.	.	.	4A	.
.	2D	.	2B-	.
.	2C	.	2c	.
=64	=64	=64	=64	=64
0r	2F	1r	2A	0r
.	2G	.	2G	.
.	[1A	[1F	2.c	.
.	.	.	4B-	.
=65	=65	=65	=65	=65
0r	2A]	2F]	2c	0r
.	4G	4E	2.d	.
.	4F	4D	.	.
.	2G	2E	.	.
.	.	.	4c	.
.	[2A	2F	4c	.
.	.	.	8d	.
.	.	.	8e	.
=66	=66	=66	=66	=66
0r	4A]	2D	2f	0r
.	4B-	.	.	.
.	1c	2C	2e	.
.	.	2F	1d	.
.	2B	2G	.	.
=67	=67	=67	=67	=67
0r	1c	2A	2c	2r
.	.	2F	2A	1f
.	1r	1B-	1d	.
.	.	.	.	4e
.	.	.	.	4d
=68	=68	=68	=68	=68
0r	2r	1A	2.c	2e
.	2F	.	.	2f
.	.	.	4A	.
.	2G	1r	2B-	2d
.	2A	.	2c	2c
=69	=69	=69	=69	=69
0r	1B-	2r	2.d	2f
.	.	2G	.	2g
.	.	.	4e	.
.	2c	2F	[1f	2.a
.	2d	4D	.	.
.	.	4E	.	4g
=70	=70	=70	=70	=70
0r	2.c	4F	2f]	4a
.	.	4G	.	4b-
.	.	2A	2e	1cc
.	4A	.	.	.
.	1d	1G	2g	.
.	.	.	[2g	2b
=71	=71	=71	=71	=71
1.C	0c	1G	2g]	1cc
.	.	.	2f	.
.	.	1r	2e	[1cc
2BB-	.	.	2d	.
=72	=72	=72	=72	=72
2AA	1r	1.c	2c	2cc]
2GG	.	.	4d	2b-
.	.	.	4e	.
[1FF	[1c	.	[1f	2a
.	.	2B-	.	2g
=73	=73	=73	=73	=73
0FF]	2c]	2A	1f]	2f
.	2B-	2G	.	2g
.	2A	2.F	2r	[1a
.	2G	.	2c	.
.	.	4E	.	.
=74	=74	=74	=74	=74
1r	2F	1D	2d	2a]
.	2F	.	1f	2b-
2r	1G	1C	.	1cc
2C	.	.	2e	.
=75	=75	=75	=75	=75
2D	2B-	1F	2d	0r
1F	2A	.	1c	.
.	2.c	2A	.	.
2E	.	[2c	[2g	.
.	4d	.	.	.
=76	=76	=76	=76	=76
1G	2e	2c]	2g]	0r
.	1d	2B-	2G	.
2F	.	2A	2r	.
2E	[2c	2G	2c	.
=77	=77	=77	=77	=77
1D	4c]	2F	2d	1f
.	4B	.	.	.
.	4B	2F	1f	.
.	4A	.	.	.
1C	2c	2r	.	1g
.	2C	2c	2e	.
=78	=78	=78	=78	=78
2GG	4D	2B-	2g	2b-
.	4E	.	.	.
2D	4F	2d	2.f	2a
.	4G	.	.	.
2AA	2.A	1c	.	1cc
.	.	.	4e	.
2AA	.	.	2e	.
.	4G	.	.	.
=79	=79	=79	=79	=79
2BB-	1F	2d	4d	2b-
.	.	.	4e	.
2FF	.	2c	1f	2a
1C	1G	1c	.	1g
.	.	.	2e	.
=80	=80	=80	=80	=80
[0FF	[0F	[0c	[0f	[0a
=81	=81	=81	=81	=81
0FF]	0F]	0c]	0f]	0a]
*-	*-	*-	*-	*-
!!!CDT: 1525/^1526/-1594/2/2
!!!OCY: Italia
!!!AGN: Mass (Paraphrase)
!!!AST: renaissance, vocal
!!!ASW: Gregorian Mass
!!!PWK: Masses, Book Mantuan II
!!!RNB: Cadence finals: C
!!!YOR: Le Opere Complete, v. 19, p. 87
!!!YOO: Rome, Italy: Fratelli Scalera
!!!END: 1992//
!!!EED: John Miller
!!!YEC: Copyright 2000, John Miller
!!!YEN: United States of America
!!!YEM: Rights to all derivative electronic formats reserved.
!!!YEM: Refer to licensing agreement for further details.
!!!YEM: This file must be accompanied by the licensing agreement.
!!!YEM: A copy of the licensing agreement may be found at http://www.music-cog.ohio-state.edu/HumdrumDatabases/Palestrina/license.txt
!!!EMD: converted to Humdrum by Bret Aarden
